icons/bubble-chart-line.svg

<svg viewBox="0 0 24 24" fill="currentColor" xmlns="http://www.w3.org/2000/svg">
    <path d="M16 16C17.6569 16 19 17.3431 19 19C19 20.6569 17.6569 22 16 22C14.3431 22 13 20.6569 13 19C13 17.3431 14.3431 16 16 16ZM6 12C8.20914 12 10 13.7909 10 16C10 18.2091 8.20914 20 6 20C3.79086 20 2 18.2091 2 16C2 13.7909 3.79086 12 6 12ZM16 18C15.4477 18 15 18.4477 15 19C15 19.5523 15.4477 20 16 20C16.5523 20 17 19.5523 17 19C17 18.4477 16.5523 18 16 18ZM6 14C4.89543 14 4 14.8954 4 16C4 17.1046 4.89543 18 6 18C7.10457 18 8 17.1046 8 16C8 14.8954 7.10457 14 6 14ZM14.5 2C17.5376 2 20 4.46243 20 7.5C20 10.5376 17.5376 13 14.5 13C11.4624 13 9 10.5376 9 7.5C9 4.46243 11.4624 2 14.5 2ZM14.5 4C12.567 4 11 5.567 11 7.5C11 9.433 12.567 11 14.5 11C16.433 11 18 9.433 18 7.5C18 5.567 16.433 4 14.5 4Z"/>
</svg>

<svg xmlns="http://www.w3.org/2000/svg" viewBox="0 0 24 24">
    <g>
        <path fill="none" d="M0 0L24 0 24 24 0 24z"/>
        <path d="M16 16c1.657 0 3 1.343 3 3s-1.343 3-3 3-3-1.343-3-3 1.343-3 3-3zM6 12c2.21 0 4 1.79 4 4s-1.79 4-4 4-4-1.79-4-4 1.79-4 4-4zm10 6c-.552 0-1 .448-1 1s.448 1 1 1 1-.448 1-1-.448-1-1-1zM6 14c-1.105 0-2 .895-2 2s.895 2 2 2 2-.895 2-2-.895-2-2-2zm8.5-12C17.538 2 20 4.462 20 7.5S17.538 13 14.5 13 9 10.538 9 7.5 11.462 2 14.5 2zm0 2C12.567 4 11 5.567 11 7.5s1.567 3.5 3.5 3.5S18 9.433 18 7.5 16.433 4 14.5 4z"/>
    </g>
</svg>
